X: 490
T: Cong qianshang liaodaole heobanshang
L: 1/8
M: 3/8
K: F
f/ d/ c G [I:setbarnb 1]| 
c/ d/ c c | 
B G B/ D/ | 
C3- | 
C3 | 
F C F | 
G c C | 
F D C | 
C3- | 
C3 |]

@@@ Tune index: 9364
